!!!OTL: Down the Course of Years
!!!ARE: China
!!!AMD: Pentatonic
**kern
=1-
*clefG2
*k[b-]
*M4/4
*MM60
{4f/
4cc\
4a/
4f/
=2
4a/
4cc\
4dd\
4cc\}
=3
{4dd\
4cc\
4a/
4g/
=4
4cc\
4g/
4dd\
4f/}
=5
{4ff\
4dd\
4cc\
4a/
=6
4ff\
4cc\
4dd\
4cc\}
=7
{4dd\
4cc\
4a/
4g/
=8
4dd\
4cc\
4a/
4f/}
==
*-
